;FLAVOR:Marlin
;TIME:5171
;Filament used: 4.73969m
;Layer height: 0.2
;MINX:89.7
;MINY:61.7
;MINZ:0.2
;MAXX:124.3
;MAXY:172.288
;MAXZ:11
;Generated with Cura_SteamEngine 4.8.0
M140 S60
M105
M190 S60
M104 S200
M105
M109 S200
M82 ;absolute extrusion mode
;Layer height: 0.2
;Walls: 1
;Fill: 99
;Top\Bottom Thickness: 0.6
G90 ;absolute positioning
M82 ;set extruder to absolute mode
G4 S1 ;1 millisecond pause to buffer the bep bep 
M300 S2 ;FAB bep bep (start the print, go check the oozing and skirt lines adesion) 
G4 S1 ;1 second pause to reach the printer (run fast)
G92 E0 ;zero the extruded length 
G1 F200 E35    ;slowly extrude 35mm of filament to clean the nozzle and build up extrusion pressure 
G92 E0 ;zero the extruded length again 
;print
G92 E0
G92 E0
G1 F1380 E-2.5
;LAYER_COUNT:55
;LAYER:0
M107
G0 F8400 X91.097 Y65.163 Z0.2
;TYPE:SKIRT
G1 F1380 E0
G1 F2700 X91.58 Y64.539 E0.02625
G1 X91.985 Y64.102 E0.04606
G1 X92.102 Y63.985 E0.05157
G1 X92.688 Y63.455 E0.07785
G1 X93.324 Y62.988 E0.10409
G1 X94.004 Y62.587 E0.13035
G1 X94.722 Y62.257 E0.15663
G1 X95.469 Y62.002 E0.18288
G1 X96.238 Y61.823 E0.20914
G1 X97.022 Y61.723 E0.23543
G1 X97.617 Y61.7 E0.25523
G1 X101.383 Y61.7 E0.38049
G1 X102.172 Y61.74 E0.40677
G1 X102.952 Y61.859 E0.43301
G1 X103.717 Y62.057 E0.45929
G1 X104.457 Y62.331 E0.48554
G1 X105.166 Y62.679 E0.51181
G1 X105.837 Y63.097 E0.5381
G1 X106.461 Y63.58 E0.56435
G1 X106.898 Y63.985 E0.58416
G1 X107 Y64.087 E0.58896
G1 X107.102 Y63.985 E0.59376
G1 X107.688 Y63.455 E0.62004
G1 X108.324 Y62.988 E0.64628
G1 X109.004 Y62.587 E0.67254
G1 X109.722 Y62.257 E0.69882
G1 X110.469 Y62.002 E0.72507
G1 X111.238 Y61.823 E0.75133
G1 X112.022 Y61.723 E0.77762
G1 X112.617 Y61.7 E0.79743
G1 X116.383 Y61.7 E0.92268
G1 X117.172 Y61.74 E0.94896
G1 X117.952 Y61.859 E0.9752
G1 X118.717 Y62.057 E1.00149
G1 X119.457 Y62.331 E1.02773
G1 X120.166 Y62.679 E1.054
G1 X120.837 Y63.097 E1.08029
G1 X121.461 Y63.58 E1.10654
G1 X121.898 Y63.985 E1.12636
G1 X122.015 Y64.102 E1.13186
G1 X122.545 Y64.688 E1.15814
G1 X123.012 Y65.324 E1.18438
G1 X123.413 Y66.004 E1.21064
G1 X123.743 Y66.722 E1.23692
G1 X123.998 Y67.469 E1.26317
G1 X124.177 Y68.238 E1.28943
G1 X124.277 Y69.022 E1.31572
G1 X124.3 Y69.617 E1.33553
G1 X124.3 Y84.383 E1.82665
G1 X124.26 Y85.172 E1.85292
G1 X124.141 Y85.952 E1.87916
G1 X123.943 Y86.717 E1.90545
G1 X123.669 Y87.457 E1.93169
G1 X123.321 Y88.166 E1.95796
G1 X122.903 Y88.837 E1.98426
G1 X122.42 Y89.461 E2.0105
G1 X122.015 Y89.898 E2.03032
G1 X121.898 Y90.015 E2.03582
G1 X121.312 Y90.545 E2.0621
G1 X120.676 Y91.012 E2.08834
G1 X120.3 Y91.234 E2.10287
G1 X120.3 Y164.058 E4.525
G1 X120.26 Y164.847 E4.55128
G1 X120.141 Y165.627 E4.57752
G1 X119.943 Y166.392 E4.6038
G1 X119.669 Y167.132 E4.63005
G1 X119.321 Y167.841 E4.65632
G1 X118.903 Y168.512 E4.68261
G1 X118.422 Y169.134 E4.70876
G1 X118.326 Y169.246 E4.71367
G1 X117.783 Y169.819 E4.73993
G1 X117.184 Y170.334 E4.7662
G1 X116.536 Y170.786 E4.79248
G1 X115.846 Y171.169 E4.81873
G1 X115.121 Y171.482 E4.84499
G1 X114.367 Y171.719 E4.87128
G1 X113.611 Y171.876 E4.89696
G1 X113.164 Y171.946 E4.91201
G1 X112.364 Y172.029 E4.93876
G1 X107.402 Y172.288 E5.10402
G1 X106.586 Y172.288 E5.13116
G1 X101.619 Y172.027 E5.29659
G1 X100.815 Y171.943 E5.32348
G1 X100.383 Y171.875 E5.33802
G1 X99.61 Y171.713 E5.36429
G1 X98.858 Y171.474 E5.39054
G1 X98.133 Y171.159 E5.41683
G1 X97.444 Y170.773 E5.4431
G1 X96.798 Y170.32 E5.46934
G1 X96.201 Y169.803 E5.49561
G1 X95.674 Y169.246 E5.52111
G1 X95.578 Y169.134 E5.52602
G1 X95.095 Y168.509 E5.55229
G1 X94.678 Y167.839 E5.57853
G1 X94.33 Y167.13 E5.6048
G1 X94.056 Y166.389 E5.63108
G1 X93.859 Y165.624 E5.65735
G1 X93.74 Y164.844 E5.6836
G1 X93.7 Y164.058 E5.70977
G1 X93.7 Y91.238 E8.13178
G1 X93.163 Y90.903 E8.15283
G1 X92.539 Y90.42 E8.17907
G1 X92.102 Y90.015 E8.19889
G1 X91.985 Y89.898 E8.20439
G1 X91.455 Y89.312 E8.23067
G1 X90.988 Y88.676 E8.25692
G1 X90.587 Y87.996 E8.28317
G1 X90.257 Y87.278 E8.30946
G1 X90.002 Y86.531 E8.33571
G1 X89.823 Y85.762 E8.36197
G1 X89.723 Y84.978 E8.38826
G1 X89.7 Y84.383 E8.40806
G1 X89.7 Y69.617 E8.89918
G1 X89.74 Y68.828 E8.92546
G1 X89.859 Y68.048 E8.9517
G1 X90.057 Y67.283 E8.97798
G1 X90.331 Y66.543 E9.00423
G1 X90.679 Y65.834 E9.0305
G1 X91.097 Y65.163 E9.05679
G0 F8400 X91.494 Y65.294
G1 F2700 X91.975 Y64.694 E9.08237
G1 X92.384 Y64.267 E9.10203
G1 X92.956 Y63.753 E9.12761
G1 X93.578 Y63.3 E9.1532
G1 X94.243 Y62.914 E9.17878
G1 X94.945 Y62.599 E9.20437
G1 X95.676 Y62.359 E9.22996
G1 X96.427 Y62.196 E9.25552
G1 X97.192 Y62.112 E9.28112
G1 X97.617 Y62.1 E9.29526
G1 X101.383 Y62.1 E9.42051
G1 X102.151 Y62.14 E9.44609
G1 X102.911 Y62.259 E9.47168
G1 X103.654 Y62.457 E9.49725
G1 X104.373 Y62.731 E9.52285
G1 X105.059 Y63.078 E9.54841
G1 X105.706 Y63.494 E9.574
G1 X106.306 Y63.975 E9.59958
G1 X106.733 Y64.384 E9.61924
G1 X106.994 Y64.674 E9.63222
G1 X107.384 Y64.267 E9.65097
G1 X107.956 Y63.753 E9.67654
G1 X108.578 Y63.3 E9.70214
G1 X109.243 Y62.914 E9.72771
G1 X109.945 Y62.599 E9.7533
G1 X110.676 Y62.359 E9.77889
G1 X111.427 Y62.196 E9.80445
G1 X112.192 Y62.112 E9.83005
G1 X112.617 Y62.1 E9.84419
G1 X116.383 Y62.1 E9.96945
G1 X117.151 Y62.14 E9.99503
G1 X117.911 Y62.259 E10.02061
G1 X118.654 Y62.457 E10.04619
G1 X119.373 Y62.731 E10.07178
G1 X120.059 Y63.078 E10.09735
G1 X120.706 Y63.494 E10.12293
G1 X121.306 Y63.975 E10.14851
G1 X121.733 Y64.384 E10.16817
G1 X122.247 Y64.956 E10.19375
G1 X122.7 Y65.578 E10.21934
G1 X123.086 Y66.243 E10.24492
G1 X123.401 Y66.945 E10.27051
G1 X123.641 Y67.676 E10.2961
G1 X123.804 Y68.427 E10.32166
G1 X123.888 Y69.192 E10.34726
G1 X123.9 Y69.617 E10.3614
G1 X123.9 Y84.383 E10.85252
G1 X123.86 Y85.151 E10.8781
G1 X123.741 Y85.911 E10.90368
G1 X123.543 Y86.654 E10.92926
G1 X123.269 Y87.373 E10.95485
G1 X122.922 Y88.059 E10.98042
G1 X122.506 Y88.706 E11.006
G1 X122.025 Y89.306 E11.03158
G1 X121.616 Y89.733 E11.05124
G1 X121.044 Y90.247 E11.07682
G1 X120.422 Y90.7 E11.10241
G1 X119.9 Y91.003 E11.12249
G1 X119.9 Y164.058 E13.55231
G1 X119.86 Y164.826 E13.57789
G1 X119.741 Y165.586 E13.60347
G1 X119.543 Y166.329 E13.62905
G1 X119.269 Y167.048 E13.65464
G1 X118.922 Y167.734 E13.68021
G1 X118.506 Y168.381 E13.70579
G1 X118.118 Y168.874 E13.72666
G1 X118.022 Y168.986 E13.73156
G1 X117.492 Y169.543 E13.75714
G1 X116.907 Y170.042 E13.78271
G1 X116.273 Y170.478 E13.8083
G1 X115.598 Y170.845 E13.83386
G1 X114.887 Y171.141 E13.85947
G1 X114.15 Y171.361 E13.88505
G1 X113.549 Y171.481 E13.90544
G1 X113.102 Y171.551 E13.92049
G1 X112.343 Y171.63 E13.94587
G1 X107.381 Y171.889 E14.11113
G1 X106.607 Y171.889 E14.13687
G1 X101.64 Y171.628 E14.3023
G1 X100.877 Y171.548 E14.32782
G1 X100.445 Y171.48 E14.34237
G1 X99.693 Y171.321 E14.36793
G1 X98.961 Y171.085 E14.39351
G1 X98.257 Y170.774 E14.41911
G1 X97.59 Y170.392 E14.44467
G1 X96.966 Y169.942 E14.47026
G1 X96.391 Y169.431 E14.49585
G1 X95.978 Y168.986 E14.51604
G1 X95.882 Y168.874 E14.52095
G1 X95.412 Y168.265 E14.54653
G1 X95.008 Y167.61 E14.57213
G1 X94.675 Y166.917 E14.5977
G1 X94.415 Y166.193 E14.62329
G1 X94.231 Y165.446 E14.64887
G1 X94.127 Y164.684 E14.67445
G1 X94.1 Y164.058 E14.69529
G1 X94.1 Y91.002 E17.12515
G1 X93.941 Y90.922 E17.13107
G1 X93.294 Y90.506 E17.15665
G1 X92.694 Y90.025 E17.18223
G1 X92.267 Y89.616 E17.20189
G1 X91.753 Y89.044 E17.22747
G1 X91.3 Y88.422 E17.25306
G1 X90.914 Y87.757 E17.27864
G1 X90.599 Y87.055 E17.30423
G1 X90.359 Y86.324 E17.32982
G1 X90.196 Y85.573 E17.35538
G1 X90.112 Y84.808 E17.38098
G1 X90.1 Y84.383 E17.39512
G1 X90.1 Y69.617 E17.88624
G1 X90.14 Y68.849 E17.91181
G1 X90.259 Y68.089 E17.9374
G1 X90.457 Y67.346 E17.96297
G1 X90.731 Y66.627 E17.98857
G1 X91.078 Y65.941 E18.01414
G1 X91.494 Y65.294 E18.03972
G0 F8400 X91.892 Y65.428
G1 F2700 X92.55 Y64.667 E18.07318
G1 X92.667 Y64.55 E18.07868
G1 X93.224 Y64.05 E18.10358
G1 X93.83 Y63.613 E18.12843
G1 X94.48 Y63.242 E18.15332
G1 X95.166 Y62.943 E18.17821
G1 X95.88 Y62.719 E18.2031
G1 X96.613 Y62.572 E18.22796
G1 X97.617 Y62.5 E18.26144
G1 X101.383 Y62.5 E18.3867
G1 X102.13 Y62.54 E18.41158
G1 X102.868 Y62.659 E18.43645
G1 X103.59 Y62.857 E18.46135
G1 X104.286 Y63.13 E18.48621
G1 X104.949 Y63.477 E18.5111
G1 X105.572 Y63.892 E18.536
G1 X106.333 Y64.55 E18.56946
G1 X106.45 Y64.667 E18.57496
G1 X106.95 Y65.224 E18.59986
G1 X107.004 Y65.299 E18.60293
G1 X107.55 Y64.667 E18.63071
G1 X107.667 Y64.55 E18.63621
G1 X108.224 Y64.05 E18.66111
G1 X108.83 Y63.613 E18.68596
G1 X109.48 Y63.242 E18.71085
G1 X110.166 Y62.943 E18.73574
G1 X110.88 Y62.719 E18.76063
G1 X111.613 Y62.572 E18.78549
G1 X112.617 Y62.5 E18.81897
G1 X116.383 Y62.5 E18.94423
G1 X117.13 Y62.54 E18.96911
G1 X117.868 Y62.659 E18.99397
G1 X118.59 Y62.857 E19.01888
G1 X119.286 Y63.13 E19.04374
G1 X119.949 Y63.477 E19.06863
G1 X120.572 Y63.892 E19.09353
G1 X121.333 Y64.55 E19.12699
G1 X121.45 Y64.667 E19.13249
G1 X121.95 Y65.224 E19.15739
G1 X122.387 Y65.83 E19.18224
G1 X122.758 Y66.48 E19.20713
G1 X123.057 Y67.166 E19.23202
G1 X123.281 Y67.88 E19.25691
G1 X123.428 Y68.613 E19.28177
G1 X123.5 Y69.617 E19.31525
G1 X123.5 Y84.383 E19.80637
G1 X123.46 Y85.13 E19.83125
G1 X123.341 Y85.868 E19.85611
G1 X123.143 Y86.59 E19.88102
G1 X122.87 Y87.286 E19.90588
G1 X122.523 Y87.949 E19.93077
G1 X122.108 Y88.572 E19.95567
G1 X121.45 Y89.333 E19.98913
G1 X121.333 Y89.45 E19.99463
G1 X120.776 Y89.95 E20.01953
G1 X120.17 Y90.387 E20.04438
G1 X119.52 Y90.758 E20.06927
G1 X119.5 Y90.767 E20.07
G1 X119.5 Y164.058 E22.50767
G1 X119.46 Y164.805 E22.53255
G1 X119.341 Y165.543 E22.55741
G1 X119.143 Y166.265 E22.58231
G1 X118.87 Y166.961 E22.60718
G1 X118.523 Y167.624 E22.63207
G1 X118.108 Y168.247 E22.65696
G1 X117.719 Y168.726 E22.67749
G1 X117.202 Y169.267 E22.70238
G1 X116.631 Y169.75 E22.72725
G1 X116.011 Y170.169 E22.75214
G1 X115.351 Y170.52 E22.777
G1 X114.656 Y170.798 E22.8019
G1 X113.936 Y171 E22.82677
G1 X113.04 Y171.156 E22.85702
G1 X112.322 Y171.23 E22.88103
G1 X107.36 Y171.489 E23.04629
G1 X106.628 Y171.489 E23.07064
G1 X101.661 Y171.228 E23.23607
G1 X100.94 Y171.153 E23.26018
G1 X100.508 Y171.085 E23.27472
G1 X99.776 Y170.929 E23.29962
G1 X99.065 Y170.696 E23.3245
G1 X98.383 Y170.389 E23.34938
G1 X97.738 Y170.011 E23.37424
G1 X97.136 Y169.566 E23.39914
G1 X96.586 Y169.059 E23.42402
G1 X96.185 Y168.614 E23.44394
G1 X95.729 Y168.02 E23.46885
G1 X95.34 Y167.382 E23.4937
G1 X95.02 Y166.706 E23.51858
G1 X94.774 Y165.999 E23.54348
G1 X94.606 Y165.27 E23.56836
G1 X94.516 Y164.528 E23.59322
G1 X94.5 Y164.058 E23.60886
G1 X94.5 Y90.758 E26.04683
G1 X94.051 Y90.523 E26.06368
G1 X93.428 Y90.108 E26.08858
G1 X92.667 Y89.45 E26.12204
G1 X92.55 Y89.333 E26.12755
G1 X92.05 Y88.776 E26.15244
G1 X91.613 Y88.17 E26.17729
G1 X91.242 Y87.52 E26.20218
G1 X90.943 Y86.834 E26.22707
G1 X90.719 Y86.12 E26.25196
G1 X90.572 Y85.387 E26.27683
G1 X90.5 Y84.383 E26.31031
G1 X90.5 Y69.617 E26.80143
G1 X90.54 Y68.87 E26.82631
G1 X90.659 Y68.132 E26.85117
G1 X90.857 Y67.41 E26.87607
G1 X91.13 Y66.714 E26.90094
G1 X91.477 Y66.051 E26.92582
G1 X91.892 Y65.428 E26.95072
G0 F8400 X92.289 Y65.567
G1 F2700 X92.833 Y64.95 E26.97808
G1 X92.95 Y64.833 E26.98358
G1 X93.491 Y64.349 E27.00773
G1 X94.082 Y63.926 E27.0319
G1 X94.716 Y63.572 E27.05605
G1 X95.385 Y63.289 E27.08021
G1 X96.081 Y63.081 E27.10437
G1 X96.796 Y62.951 E27.12854
G1 X97.617 Y62.9 E27.1559
G1 X101.383 Y62.9 E27.28116
G1 X102.108 Y62.94 E27.30531
G1 X102.825 Y63.059 E27.32948
G1 X103.524 Y63.257 E27.35365
G1 X104.197 Y63.53 E27.3778
G1 X104.836 Y63.875 E27.40196
G1 X105.433 Y64.289 E27.42612
G1 X106.05 Y64.833 E27.45348
G1 X106.167 Y64.95 E27.45898
G1 X106.651 Y65.491 E27.48313
G1 X107.002 Y65.981 E27.50317
G1 X107.289 Y65.567 E27.51993
G1 X107.833 Y64.95 E27.54729
G1 X107.95 Y64.833 E27.55279
G1 X108.491 Y64.349 E27.57693
G1 X109.082 Y63.926 E27.60111
G1 X109.716 Y63.572 E27.62526
G1 X110.385 Y63.289 E27.64942
G1 X111.081 Y63.081 E27.67358
G1 X111.796 Y62.951 E27.69775
G1 X112.617 Y62.9 E27.72511
G1 X116.383 Y62.9 E27.85037
G1 X117.108 Y62.94 E27.87452
G1 X117.825 Y63.059 E27.89869
G1 X118.524 Y63.257 E27.92285
G1 X119.197 Y63.53 E27.94701
G1 X119.836 Y63.875 E27.97116
G1 X120.433 Y64.289 E27.99533
G1 X121.05 Y64.833 E28.02269
G1 X121.167 Y64.95 E28.02819
G1 X121.651 Y65.491 E28.05233
G1 X122.074 Y66.082 E28.07651
G1 X122.428 Y66.716 E28.10066
G1 X122.711 Y67.385 E28.12482
G1 X122.919 Y68.081 E28.14898
G1 X123.049 Y68.796 E28.17315
G1 X123.1 Y69.617 E28.20051
G1 X123.1 Y84.383 E28.69163
G1 X123.06 Y85.108 E28.71578
G1 X122.941 Y85.825 E28.73995
G1 X122.743 Y86.524 E28.76411
G1 X122.47 Y87.197 E28.78827
G1 X122.125 Y87.836 E28.81242
G1 X121.711 Y88.433 E28.83659
G1 X121.167 Y89.05 E28.86395
G1 X121.05 Y89.167 E28.86945
G1 X120.509 Y89.651 E28.89359
G1 X119.918 Y90.074 E28.91777
G1 X119.284 Y90.428 E28.94192
G1 X119.1 Y90.506 E28.94856
G1 X119.1 Y164.058 E31.39491
G1 X119.06 Y164.783 E31.41906
G1 X118.941 Y165.5 E31.44324
G1 X118.743 Y166.199 E31.4674
G1 X118.47 Y166.872 E31.49156
G1 X118.125 Y167.511 E31.51571
G1 X117.511 Y168.353 E31.55037
G1 X117.415 Y168.465 E31.55528
G1 X116.913 Y168.99 E31.57944
G1 X116.356 Y169.456 E31.60359
G1 X115.751 Y169.858 E31.62775
G1 X115.106 Y170.192 E31.65191
G1 X114.428 Y170.452 E31.67606
G1 X113.425 Y170.691 E31.71035
G1 X112.978 Y170.761 E31.7254
G1 X112.301 Y170.831 E31.74804
G1 X107.339 Y171.09 E31.9133
G1 X106.649 Y171.09 E31.93625
G1 X101.682 Y170.829 E32.10168
G1 X101.002 Y170.758 E32.12442
G1 X100.57 Y170.69 E32.13897
G1 X99.86 Y170.537 E32.16312
G1 X99.17 Y170.308 E32.1873
G1 X98.511 Y170.004 E32.21144
G1 X97.888 Y169.63 E32.23561
G1 X97.311 Y169.189 E32.25976
G1 X96.585 Y168.465 E32.29387
G1 X96.489 Y168.353 E32.29877
G1 X96.047 Y167.777 E32.32292
G1 X95.672 Y167.155 E32.34708
G1 X95.367 Y166.496 E32.37123
G1 X95.136 Y165.807 E32.3954
G1 X94.982 Y165.097 E32.41956
G1 X94.9 Y164.058 E32.45423
G1 X94.9 Y90.509 E34.90048
G1 X94.803 Y90.47 E34.90395
G1 X94.164 Y90.125 E34.92811
G1 X93.567 Y89.711 E34.95227
G1 X92.95 Y89.167 E34.97963
G1 X92.833 Y89.05 E34.98513
G1 X92.349 Y88.509 E35.00928
G1 X91.926 Y87.918 E35.03345
G1 X91.572 Y87.284 E35.0576
G1 X91.289 Y86.615 E35.08176
G1 X91.081 Y85.919 E35.10592
G1 X90.951 Y85.204 E35.13009
G1 X90.9 Y84.383 E35.15745
G1 X90.9 Y69.617 E35.64857
G1 X90.94 Y68.892 E35.67272
G1 X91.059 Y68.175 E35.6969
G1 X91.257 Y67.476 E35.72106
G1 X91.53 Y66.803 E35.74521
G1 X91.875 Y66.164 E35.76937
G1 X92.289 Y65.567 E35.79353
G0 F8400 X92.274 Y66.282
G1 F2700 X92.685 Y65.711 E35.81693
G1 X93.116 Y65.233 E35.83834
G1 X93.233 Y65.116 E35.84384
G1 X93.758 Y64.647 E35.86726
G1 X94.333 Y64.241 E35.89067
G1 X94.951 Y63.903 E35.91409
G1 X95.602 Y63.636 E35.9375
G1 X96.28 Y63.446 E35.96092
G1 X96.975 Y63.333 E35.98434
G1 X97.617 Y63.3 E36.00572
G1 X101.383 Y63.3 E36.13097
G1 X102.086 Y63.34 E36.15439
G1 X102.78 Y63.459 E36.17781
G1 X103.455 Y63.657 E36.20121
G1 X104.104 Y63.929 E36.22462
G1 X104.718 Y64.274 E36.24804
G1 X105.289 Y64.685 E36.27144
G1 X105.767 Y65.116 E36.29285
G1 X105.884 Y65.233 E36.29835
G1 X106.353 Y65.758 E36.32176
G1 X106.759 Y66.333 E36.34518
G1 X106.999 Y66.772 E36.36182
G1 X107.274 Y66.282 E36.38051
G1 X107.685 Y65.711 E36.4039
G1 X108.116 Y65.233 E36.42531
G1 X108.233 Y65.116 E36.43082
G1 X108.758 Y64.647 E36.45423
G1 X109.333 Y64.241 E36.47764
G1 X109.951 Y63.903 E36.50107
G1 X110.602 Y63.636 E36.52447
G1 X111.28 Y63.446 E36.54789
G1 X111.975 Y63.333 E36.57131
G1 X112.617 Y63.3 E36.59269
G1 X116.383 Y63.3 E36.71795
G1 X117.086 Y63.34 E36.74137
G1 X117.78 Y63.459 E36.76479
G1 X118.455 Y63.657 E36.78818
G1 X119.104 Y63.929 E36.81159
