;FLAVOR:Marlin
;TIME:12634
;Filament used: 12.7494m
;Layer height: 0.2
;MINX:72.627
;MINY:64.93
;MINZ:0.2
;MAXX:141.364
;MAXY:169.069
;MAXZ:45
;Generated with Cura_SteamEngine 4.8.0
M140 S60
M105
M190 S60
M104 S200
M105
M109 S200
M82 ;absolute extrusion mode
;Layer height: 0.2
;Walls: 1
;Fill: 100
;Top\Bottom Thickness: 0.6
G90 ;absolute positioning
M82 ;set extruder to absolute mode
G4 S1 ;1 millisecond pause to buffer the bep bep 
M300 S2 ;FAB bep bep (start the print, go check the oozing and skirt lines adesion) 
G4 S1 ;1 second pause to reach the printer (run fast)
G92 E0 ;zero the extruded length 
G1 F200 E35    ;slowly extrude 35mm of filament to clean the nozzle and build up extrusion pressure 
G92 E0 ;zero the extruded length again 
;print
G92 E0
G92 E0
G1 F1380 E-2.5
;LAYER_COUNT:225
;LAYER:0
M107
G0 F8400 X74.777 Y67.705 Z0.2
;TYPE:SKIRT
G1 F1380 E0
G1 F2700 X75.334 Y67.145 E0.02627
G1 X76.246 Y66.434 E0.06473
G1 X76.495 Y66.268 E0.07469
G1 X77.174 Y65.864 E0.10096
G1 X77.89 Y65.53 E0.12724
G1 X78.635 Y65.271 E0.15348
G1 X79.394 Y65.09 E0.17943
G1 X79.539 Y65.063 E0.18433
G1 X80.322 Y64.958 E0.21061
G1 X80.967 Y64.931 E0.23208
G1 X132.943 Y64.93 E1.96081
G1 X133.732 Y64.97 E1.98709
G1 X134.829 Y65.162 E2.02413
G1 X135.162 Y65.245 E2.03554
G1 X135.918 Y65.474 E2.06181
G1 X136.647 Y65.779 E2.0881
G1 X137.34 Y66.156 E2.11434
G1 X137.993 Y66.601 E2.14062
G1 X138.842 Y67.349 E2.17825
G1 X139.056 Y67.567 E2.18841
G1 X139.58 Y68.158 E2.21468
G1 X140.042 Y68.798 E2.24094
G1 X140.436 Y69.483 E2.26722
G1 X140.759 Y70.203 E2.29347
G1 X141.038 Y71.063 E2.32354
G1 X141.111 Y71.343 E2.33316
G1 X141.271 Y72.116 E2.35942
G1 X141.352 Y72.902 E2.3857
G1 X141.363 Y73.311 E2.39931
G1 X141.364 Y160.685 E5.30538
G1 X141.324 Y161.474 E5.33165
G1 X141.205 Y162.254 E5.3579
G1 X141.007 Y163.018 E5.38415
G1 X140.902 Y163.353 E5.39582
G1 X140.628 Y164.093 E5.42207
G1 X140.28 Y164.803 E5.44837
G1 X139.863 Y165.473 E5.47462
G1 X139.38 Y166.098 E5.50089
G1 X138.836 Y166.67 E5.52714
G1 X138.241 Y167.189 E5.5534
G1 X137.611 Y167.665 E5.57967
G1 X136.936 Y168.075 E5.60593
G1 X136.223 Y168.415 E5.63221
G1 X135.48 Y168.68 E5.65844
G1 X134.744 Y168.864 E5.68368
G1 X134.456 Y168.921 E5.69344
G1 X133.675 Y169.034 E5.71969
G1 X132.942 Y169.069 E5.74409
G1 X80.975 Y169.069 E7.47252
G1 X80.186 Y169.029 E7.4988
G1 X79.406 Y168.91 E7.52504
G1 X78.641 Y168.712 E7.55133
G1 X78.078 Y168.511 E7.57121
G1 X77.733 Y168.373 E7.58357
G1 X77.016 Y168.043 E7.60982
G1 X76.335 Y167.642 E7.6361
G1 X75.699 Y167.175 E7.66235
G1 X75.113 Y166.645 E7.68863
G1 X74.584 Y166.059 E7.71488
G1 X74.117 Y165.422 E7.74116
G1 X73.67 Y164.676 E7.77008
G1 X73.311 Y163.973 E7.79633
G1 X73.024 Y163.237 E7.82261
G1 X72.814 Y162.476 E7.84887
G1 X72.681 Y161.697 E7.87515
G1 X72.627 Y160.779 E7.90574
G1 X72.627 Y73.243 E10.8172
G1 X72.667 Y72.454 E10.84347
G1 X72.786 Y71.674 E10.86972
G1 X72.984 Y70.909 E10.896
G1 X73.335 Y69.997 E10.9285
G1 X73.481 Y69.678 E10.94017
G1 X73.845 Y68.977 E10.96644
G1 X74.279 Y68.317 E10.99271
G1 X74.777 Y67.705 E11.01895
G0 F8400 X75.114 Y67.928
G1 F2700 X75.662 Y67.388 E11.04454
G1 X76.468 Y66.767 E11.07839
G1 X76.717 Y66.601 E11.08834
G1 X77.379 Y66.208 E11.11394
G1 X78.077 Y65.886 E11.13951
G1 X78.805 Y65.638 E11.16509
G1 X79.467 Y65.483 E11.1877
G1 X79.612 Y65.456 E11.19261
G1 X80.375 Y65.355 E11.21821
G1 X80.967 Y65.331 E11.23792
G1 X132.943 Y65.33 E12.96664
G1 X133.711 Y65.37 E12.99222
G1 X134.733 Y65.55 E13.02674
G1 X135.066 Y65.633 E13.03815
G1 X135.801 Y65.857 E13.06371
G1 X136.51 Y66.157 E13.08931
G1 X137.183 Y66.529 E13.11489
G1 X137.814 Y66.968 E13.14046
G1 X138.557 Y67.629 E13.17353
G1 X138.771 Y67.847 E13.18369
G1 X139.28 Y68.423 E13.20926
G1 X139.727 Y69.049 E13.23484
G1 X140.107 Y69.718 E13.26043
G1 X140.415 Y70.423 E13.28602
G1 X140.651 Y71.164 E13.31189
G1 X140.724 Y71.444 E13.32151
G1 X140.879 Y72.197 E13.34708
G1 X140.963 Y73.311 E13.38424
G1 X140.964 Y160.685 E16.29031
G1 X140.924 Y161.453 E16.31589
G1 X140.805 Y162.213 E16.34147
G1 X140.625 Y162.898 E16.36503
G1 X140.52 Y163.233 E16.37671
G1 X140.252 Y163.954 E16.40229
G1 X139.911 Y164.644 E16.42789
G1 X139.5 Y165.294 E16.45347
G1 X139.024 Y165.898 E16.47905
G1 X138.213 Y166.691 E16.51677
G1 X137.984 Y166.883 E16.52671
G1 X137.37 Y167.345 E16.55227
G1 X136.711 Y167.742 E16.57786
G1 X136.014 Y168.068 E16.60345
G1 X135.288 Y168.32 E16.62901
G1 X134.667 Y168.471 E16.65027
G1 X134.379 Y168.528 E16.66003
G1 X133.617 Y168.638 E16.68564
G1 X132.942 Y168.669 E16.70811
G1 X80.975 Y168.669 E18.43654
G1 X80.207 Y168.629 E18.46212
G1 X79.447 Y168.51 E18.48771
G1 X78.704 Y168.312 E18.51328
G1 X78.227 Y168.14 E18.53015
G1 X77.882 Y168.002 E18.5425
G1 X77.183 Y167.679 E18.56811
G1 X76.522 Y167.286 E18.59369
G1 X75.906 Y166.827 E18.61924
G1 X75.34 Y166.305 E18.64485
G1 X74.831 Y165.728 E18.67044
G1 X74.22 Y164.828 E18.70662
G1 X74.017 Y164.476 E18.72014
G1 X73.668 Y163.791 E18.74571
G1 X73.391 Y163.073 E18.7713
G1 X73.191 Y162.33 E18.7969
G1 X73.069 Y161.571 E18.82246
G1 X73.027 Y160.779 E18.84884
G1 X73.027 Y73.243 E21.7603
G1 X73.067 Y72.475 E21.78588
G1 X73.186 Y71.715 E21.81147
G1 X73.384 Y70.972 E21.83704
G1 X73.698 Y70.163 E21.8659
G1 X73.844 Y69.844 E21.87757
G1 X74.2 Y69.163 E21.90313
G1 X74.625 Y68.521 E21.92874
G1 X75.114 Y67.928 E21.9543
G0 F8400 X75.451 Y68.153
G1 F2700 X75.989 Y67.633 E21.97919
G1 X76.69 Y67.1 E22.00848
G1 X76.939 Y66.934 E22.01843
G1 X77.583 Y66.553 E22.04332
G1 X78.264 Y66.242 E22.06822
G1 X78.973 Y66.006 E22.09307
G1 X79.541 Y65.876 E22.11245
G1 X79.686 Y65.849 E22.11736
G1 X80.427 Y65.752 E22.14222
G1 X80.967 Y65.731 E22.16019
G1 X132.943 Y65.73 E23.88892
G1 X133.69 Y65.77 E23.9138
G1 X134.636 Y65.938 E23.94576
G1 X134.969 Y66.021 E23.95717
G1 X135.684 Y66.24 E23.98204
G1 X136.372 Y66.535 E24.00694
G1 X137.024 Y66.901 E24.03181
G1 X137.634 Y67.335 E24.05671
G1 X138.271 Y67.909 E24.08523
G1 X138.485 Y68.127 E24.09539
G1 X138.98 Y68.688 E24.12027
G1 X139.412 Y69.299 E24.14516
G1 X139.777 Y69.952 E24.17004
G1 X140.069 Y70.641 E24.19493
G1 X140.264 Y71.265 E24.21668
G1 X140.337 Y71.545 E24.2263
G1 X140.486 Y72.278 E24.25118
G1 X140.563 Y73.311 E24.28563
G1 X140.564 Y160.685 E27.1917
G1 X140.524 Y161.432 E27.21658
G1 X140.405 Y162.17 E27.24145
G1 X140.244 Y162.779 E27.2624
G1 X140.139 Y163.114 E27.27407
G1 X139.877 Y163.814 E27.29893
G1 X139.542 Y164.483 E27.32382
G1 X139.138 Y165.113 E27.34871
G1 X138.669 Y165.695 E27.37357
G1 X137.956 Y166.384 E27.40655
G1 X137.727 Y166.576 E27.41649
G1 X137.129 Y167.025 E27.44136
G1 X136.487 Y167.408 E27.46622
G1 X135.807 Y167.72 E27.49111
G1 X135.098 Y167.958 E27.51598
G1 X134.589 Y168.079 E27.53338
G1 X134.301 Y168.136 E27.54315
G1 X133.561 Y168.242 E27.56801
G1 X132.942 Y168.269 E27.58862
G1 X80.975 Y168.269 E29.31705
G1 X80.228 Y168.229 E29.34193
G1 X79.49 Y168.11 E29.36679
G1 X78.768 Y167.912 E29.39169
G1 X78.03 Y167.63 E29.41797
G1 X77.352 Y167.316 E29.44282
G1 X76.71 Y166.931 E29.46772
G1 X76.114 Y166.479 E29.4926
G1 X75.569 Y165.967 E29.51747
G1 X75.082 Y165.399 E29.54235
G1 X74.566 Y164.628 E29.57321
G1 X74.363 Y164.276 E29.58673
G1 X74.025 Y163.609 E29.6116
G1 X73.759 Y162.91 E29.63647
G1 X73.57 Y162.186 E29.66136
G1 X73.459 Y161.446 E29.68625
G1 X73.427 Y160.779 E29.70846
G1 X73.427 Y73.243 E32.61992
G1 X73.467 Y72.496 E32.6448
G1 X73.586 Y71.758 E32.66966
G1 X73.784 Y71.036 E32.69456
G1 X74.062 Y70.33 E32.7198
G1 X74.208 Y70.011 E32.73147
G1 X74.555 Y69.348 E32.75636
G1 X74.971 Y68.726 E32.78124
G1 X75.451 Y68.153 E32.8061
G0 F8400 X75.787 Y68.379
G1 F2700 X76.315 Y67.881 E32.83024
G1 X76.912 Y67.432 E32.85509
G1 X77.161 Y67.266 E32.86504
G1 X77.787 Y66.897 E32.88921
G1 X78.449 Y66.599 E32.91336
G1 X79.14 Y66.376 E32.93751
G1 X79.759 Y66.243 E32.95857
G1 X80.479 Y66.149 E32.98272
G1 X80.967 Y66.131 E32.99896
G1 X132.943 Y66.13 E34.72769
G1 X133.668 Y66.17 E34.75184
G1 X134.539 Y66.326 E34.78127
G1 X134.872 Y66.409 E34.79268
G1 X135.566 Y66.623 E34.81684
G1 X136.233 Y66.912 E34.84102
G1 X136.863 Y67.273 E34.86517
G1 X137.45 Y67.701 E34.88933
G1 X137.986 Y68.19 E34.91346
G1 X138.2 Y68.408 E34.92362
G1 X138.679 Y68.953 E34.94775
G1 X139.096 Y69.548 E34.97192
G1 X139.445 Y70.185 E34.99608
G1 X139.722 Y70.857 E35.02025
G1 X139.877 Y71.366 E35.03795
G1 X139.95 Y71.646 E35.04757
G1 X140.094 Y72.358 E35.07173
G1 X140.163 Y73.311 E35.10351
G1 X140.164 Y160.685 E38.00959
G1 X140.124 Y161.41 E38.03374
G1 X140.005 Y162.127 E38.05791
G1 X139.862 Y162.659 E38.07623
G1 X139.757 Y162.994 E38.08791
G1 X139.502 Y163.674 E38.11206
G1 X139.174 Y164.322 E38.13622
G1 X138.776 Y164.93 E38.16039
G1 X138.314 Y165.491 E38.18456
G1 X137.699 Y166.078 E38.21284
G1 X137.47 Y166.27 E38.22278
G1 X136.889 Y166.705 E38.24692
G1 X136.263 Y167.074 E38.27109
G1 X135.601 Y167.372 E38.29523
G1 X134.909 Y167.595 E38.31941
G1 X134.223 Y167.743 E38.34276
G1 X133.504 Y167.845 E38.36691
G1 X132.942 Y167.869 E38.38562
G1 X80.975 Y167.869 E40.11405
G1 X80.25 Y167.829 E40.1382
G1 X79.533 Y167.71 E40.16237
G1 X78.524 Y167.397 E40.19751
G1 X78.179 Y167.259 E40.20987
G1 X77.52 Y166.952 E40.23405
G1 X76.899 Y166.576 E40.25819
G1 X76.324 Y166.133 E40.28234
G1 X75.8 Y165.629 E40.30652
G1 X75.335 Y165.071 E40.33068
G1 X74.913 Y164.428 E40.35626
G1 X74.71 Y164.076 E40.36977
G1 X74.382 Y163.428 E40.39393
G1 X74.127 Y162.748 E40.41808
G1 X73.949 Y162.044 E40.44223
G1 X73.85 Y161.324 E40.46641
G1 X73.827 Y160.779 E40.48455
G1 X73.827 Y73.243 E43.39601
G1 X73.867 Y72.518 E43.42016
G1 X73.986 Y71.801 E43.44433
G1 X74.184 Y71.102 E43.4685
G1 X74.426 Y70.496 E43.4902
G1 X74.572 Y70.177 E43.50187
G1 X74.91 Y69.534 E43.52603
G1 X75.317 Y68.933 E43.55017
G1 X75.787 Y68.379 E43.57433
G0 F8400 X76.122 Y68.608
G1 F2700 X76.64 Y68.131 E43.59776
G1 X77.134 Y67.765 E43.6182
G1 X77.383 Y67.599 E43.62816
G1 X77.99 Y67.243 E43.65156
G1 X78.633 Y66.957 E43.67497
G1 X79.305 Y66.746 E43.6984
G1 X79.832 Y66.636 E43.7163
G1 X80.53 Y66.546 E43.73971
G1 X80.967 Y66.531 E43.75425
G1 X132.943 Y66.53 E45.48298
G1 X133.646 Y66.57 E45.5064
G1 X134.442 Y66.714 E45.53331
G1 X134.775 Y66.797 E45.54472
G1 X135.448 Y67.006 E45.56816
G1 X136.092 Y67.289 E45.59156
G1 X136.7 Y67.644 E45.61497
G1 X137.264 Y68.066 E45.6384
G1 X137.7 Y68.47 E45.65817
G1 X137.914 Y68.688 E45.66833
G1 X138.378 Y69.217 E45.69173
G1 X138.779 Y69.796 E45.71516
G1 X139.112 Y70.416 E45.73857
G1 X139.372 Y71.071 E45.76201
G1 X139.562 Y71.747 E45.78536
G1 X139.701 Y72.437 E45.80877
G1 X139.763 Y73.311 E45.83791
G1 X139.764 Y160.685 E48.74399
G1 X139.724 Y161.388 E48.76741
G1 X139.605 Y162.082 E48.79082
G1 X139.375 Y162.874 E48.81825
G1 X139.127 Y163.533 E48.84167
G1 X138.805 Y164.159 E48.86509
G1 X138.415 Y164.745 E48.8885
G1 X137.961 Y165.283 E48.91191
G1 X137.442 Y165.771 E48.93561
G1 X137.213 Y165.963 E48.94555
G1 X136.649 Y166.384 E48.96896
G1 X136.041 Y166.738 E48.99236
G1 X135.396 Y167.021 E49.01578
G1 X134.434 Y167.294 E49.04904
G1 X134.146 Y167.351 E49.05881
G1 X133.448 Y167.448 E49.08225
G1 X132.942 Y167.469 E49.09909
G1 X80.975 Y167.469 E50.82752
G1 X80.272 Y167.429 E50.85094
G1 X79.578 Y167.31 E50.87436
G1 X78.672 Y167.026 E50.90594
G1 X78.327 Y166.888 E50.9183
G1 X77.69 Y166.589 E50.9417
G1 X77.09 Y166.221 E50.96511
G1 X76.536 Y165.787 E50.98852
G1 X76.034 Y165.293 E51.01194
G1 X75.592 Y164.745 E51.03536
G1 X75.259 Y164.228 E51.05581
G1 X75.056 Y163.876 E51.06933
G1 X74.74 Y163.248 E51.09271
G1 X74.496 Y162.587 E51.11615
G1 X74.33 Y161.903 E51.13956
G1 X74.242 Y161.205 E51.16296
G1 X74.227 Y160.779 E51.17713
G1 X74.227 Y73.243 E54.08859
G1 X74.267 Y72.54 E54.11201
G1 X74.386 Y71.846 E54.13543
G1 X74.584 Y71.171 E54.15883
G1 X74.789 Y70.663 E54.17705
G1 X74.935 Y70.344 E54.18872
G1 X75.264 Y69.721 E54.21215
G1 X75.662 Y69.14 E54.23557
G1 X76.122 Y68.608 E54.25897
G0 F8400 X76.456 Y68.838
G1 F2700 X76.963 Y68.384 E54.2816
G1 X77.605 Y67.932 E54.30772
G1 X78.192 Y67.588 E54.33034
G1 X78.816 Y67.316 E54.35299
G1 X79.76 Y67.056 E54.38555
G1 X79.905 Y67.029 E54.39046
G1 X80.581 Y66.944 E54.41312
G1 X80.967 Y66.931 E54.42596
G1 X132.943 Y66.93 E56.15469
G1 X133.623 Y66.97 E56.17735
G1 X134.346 Y67.102 E56.20179
G1 X134.679 Y67.185 E56.21321
G1 X135.329 Y67.388 E56.23586
G1 X135.95 Y67.666 E56.25849
G1 X136.535 Y68.015 E56.28114
G1 X137.075 Y68.43 E56.30379
G1 X137.629 Y68.968 E56.32948
G1 X138.077 Y69.481 E56.35213
G1 X138.461 Y70.043 E56.37477
G1 X138.777 Y70.646 E56.39741
G1 X139.102 Y71.568 E56.42993
G1 X139.175 Y71.848 E56.43955
G1 X139.308 Y72.516 E56.46221
G1 X139.363 Y73.311 E56.48871
G1 X139.364 Y160.685 E59.39478
G1 X139.324 Y161.365 E59.41744
G1 X139.205 Y162.035 E59.44007
G1 X138.994 Y162.755 E59.46503
G1 X138.752 Y163.391 E59.48766
G1 X138.438 Y163.995 E59.5103
G1 X138.055 Y164.558 E59.53295
G1 X137.608 Y165.072 E59.55561
G1 X137.185 Y165.465 E59.57481
G1 X136.956 Y165.657 E59.58475
G1 X136.41 Y166.063 E59.60738
G1 X135.82 Y166.402 E59.63001
G1 X135.193 Y166.67 E59.65269
G1 X134.356 Y166.902 E59.68158
G1 X134.068 Y166.959 E59.69134
G1 X133.394 Y167.051 E59.71397
G1 X132.942 Y167.069 E59.72901
G1 X80.975 Y167.069 E61.45744
G1 X80.295 Y167.029 E61.4801
G1 X79.625 Y166.91 E61.50273
G1 X78.821 Y166.654 E61.5308
G1 X78.476 Y166.516 E61.54316
G1 X77.86 Y166.227 E61.56579
G1 X77.282 Y165.867 E61.58843
G1 X76.75 Y165.442 E61.61108
G1 X76.271 Y164.957 E61.63375
G1 X75.853 Y164.42 E61.65639
G1 X75.403 Y163.677 E61.68528
G1 X75.098 Y163.068 E61.70793
G1 X74.866 Y162.427 E61.73061
G1 X74.711 Y161.764 E61.75325
G1 X74.627 Y160.779 E61.78613
G1 X74.627 Y73.243 E64.69759
G1 X74.667 Y72.563 E64.72025
G1 X74.786 Y71.893 E64.74288
G1 X74.983 Y71.241 E64.76553
G1 X75.299 Y70.51 E64.79202
G1 X75.618 Y69.909 E64.81465
G1 X76.006 Y69.349 E64.83731
G1 X76.456 Y68.838 E64.85996
G0 F8400 X76.349 Y69.559
G1 F2700 X76.789 Y69.071 E64.88181
G1 X77.285 Y68.64 E64.90367
G1 X77.827 Y68.265 E64.92559
G1 X78.394 Y67.934 E64.94743
G1 X78.998 Y67.675 E64.96928
G1 X79.833 Y67.449 E64.99806
G1 X79.978 Y67.422 E65.00296
G1 X80.63 Y67.341 E65.02481
G1 X80.967 Y67.331 E65.03603
G1 X132.943 Y67.33 E66.76476
G1 X133.599 Y67.37 E66.78662
G1 X134.249 Y67.49 E66.8086
G1 X134.582 Y67.573 E66.82001
G1 X135.209 Y67.771 E66.84188
G1 X135.807 Y68.043 E66.86373
G1 X136.367 Y68.385 E66.88556
G1 X136.882 Y68.793 E66.90741
G1 X137.344 Y69.248 E66.92898
G1 X137.774 Y69.744 E66.95081
G1 X138.142 Y70.289 E66.97268
G1 X138.44 Y70.874 E66.99452
G1 X138.715 Y71.669 E67.0225
G1 X138.788 Y71.949 E67.03212
G1 X138.915 Y72.593 E67.05396
G1 X138.963 Y73.311 E67.07789
G1 X138.964 Y160.685 E69.98396
G1 X138.924 Y161.341 E70.00582
G1 X138.717 Y162.3 E70.03845
G1 X138.612 Y162.635 E70.05013
G1 X138.378 Y163.249 E70.07198
G1 X138.071 Y163.83 E70.09384
G1 X137.695 Y164.369 E70.1157
G1 X137.257 Y164.858 E70.13753
G1 X136.699 Y165.35 E70.16227
G1 X136.171 Y165.741 E70.18413
G1 X135.6 Y166.064 E70.20595
G1 X134.993 Y166.316 E70.22781
G1 X134.278 Y166.509 E70.25244
G1 X133.99 Y166.566 E70.2622
G1 X133.339 Y166.654 E70.28405
G1 X132.942 Y166.669 E70.29727
G1 X80.975 Y166.669 E72.02569
G1 X80.319 Y166.629 E72.04755
G1 X79.673 Y166.51 E72.0694
G1 X78.969 Y166.283 E72.094
G1 X78.624 Y166.145 E72.10636
G1 X78.03 Y165.864 E72.12822
G1 X77.475 Y165.513 E72.15006
G1 X76.966 Y165.098 E72.1719
G1 X76.512 Y164.624 E72.19373
G1 X75.952 Y163.829 E72.22608
G1 X75.749 Y163.477 E72.23959
G1 X75.456 Y162.889 E72.26144
G1 X75.237 Y162.269 E72.28331
G1 X75.094 Y161.628 E72.30516
G1 X75.027 Y160.779 E72.33348
G1 X75.027 Y73.243 E75.24494
G1 X75.067 Y72.587 E75.2668
G1 X75.186 Y71.941 E75.28865
G1 X75.383 Y71.314 E75.31051
G1 X75.663 Y70.677 E75.33365
