;FLAVOR:Marlin
;TIME:7089
;Filament used: 6.83135m
;Layer height: 0.2
;MINX:54.716
;MINY:90.237
;MINZ:0.2
;MAXX:159.3
;MAXY:143.763
;MAXZ:16
;Generated with Cura_SteamEngine 4.8.0
M140 S60
M105
M190 S60
M104 S200
M105
M109 S200
M82 ;absolute extrusion mode
;Layer height: 0.2
;Walls: 1
;Fill: 99
;Top\Bottom Thickness: 0.6
G90 ;absolute positioning
M82 ;set extruder to absolute mode
G4 S1 ;1 millisecond pause to buffer the bep bep 
M300 S2 ;FAB bep bep (start the print, go check the oozing and skirt lines adesion) 
G4 S1 ;1 second pause to reach the printer (run fast)
G92 E0 ;zero the extruded length 
G1 F200 E35    ;slowly extrude 35mm of filament to clean the nozzle and build up extrusion pressure 
G92 E0 ;zero the extruded length again 
;print
G92 E0
G92 E0
G1 F1380 E-2.5
;LAYER_COUNT:80
;LAYER:0
M107
G0 F8400 X61.636 Y92.953 Z0.2
;TYPE:SKIRT
G1 F1380 E0
G1 F2700 X62.468 Y92.425 E0.03277
G1 X63.342 Y91.945 E0.06594
G1 X64.232 Y91.527 E0.09864
G1 X65.169 Y91.157 E0.13215
G1 X66.095 Y90.857 E0.16452
G1 X67.073 Y90.606 E0.19811
G1 X68.043 Y90.421 E0.23095
G1 X69.033 Y90.297 E0.26414
G1 X70.002 Y90.237 E0.29643
G1 X70.998 Y90.237 E0.32955
G1 X71.967 Y90.297 E0.36184
G1 X72.957 Y90.421 E0.39503
G1 X73.934 Y90.608 E0.42811
G1 X74.924 Y90.863 E0.46212
G1 X75.856 Y91.166 E0.49471
G1 X76.793 Y91.538 E0.52824
G1 X77.679 Y91.956 E0.56083
G1 X78.552 Y92.437 E0.59398
G1 X79.387 Y92.969 E0.62691
G1 X80.202 Y93.564 E0.66047
G1 X80.938 Y94.174 E0.69226
G1 X81.675 Y94.865 E0.72587
G1 X82.353 Y95.586 E0.75878
G1 X82.986 Y96.352 E0.79183
G1 X83.562 Y97.147 E0.82449
G1 X84.103 Y98.001 E0.85811
G1 X84.224 Y98.222 E0.86649
G1 X88.39 Y98.222 E1.00505
G1 X89.179 Y98.262 E1.03133
G1 X89.959 Y98.381 E1.05757
G1 X90.724 Y98.579 E1.08385
G1 X91.464 Y98.853 E1.1101
G1 X92.173 Y99.201 E1.13637
G1 X92.844 Y99.619 E1.16266
G1 X93.707 Y100.315 E1.19954
G1 X93.824 Y100.424 E1.20486
G1 X94.374 Y100.991 E1.23113
G1 X94.863 Y101.61 E1.25737
G1 X95.288 Y102.276 E1.28364
G1 X95.643 Y102.982 E1.30993
G1 X95.925 Y103.719 E1.33617
G1 X96.131 Y104.482 E1.36246
G1 X96.291 Y105.639 E1.40131
G1 X96.412 Y107.55 E1.46499
G1 X96.698 Y109.049 E1.51575
G1 X97.173 Y110.513 E1.56694
G1 X97.819 Y111.888 E1.61747
G1 X98.642 Y113.182 E1.66848
G1 X99.612 Y114.356 E1.71913
G1 X100.74 Y115.412 E1.77052
G1 X101.976 Y116.311 E1.82135
G1 X103.321 Y117.05 E1.8724
G1 X104.74 Y117.612 E1.92316
G1 X106.221 Y117.991 E1.97401
G1 X107.729 Y118.182 E2.02456
G1 X109.271 Y118.182 E2.07585
G1 X110.779 Y117.991 E2.12641
G1 X112.257 Y117.612 E2.17716
G1 X113.703 Y117.038 E2.2289
G1 X115.023 Y116.312 E2.27901
G1 X116.275 Y115.401 E2.3305
G1 X117.385 Y114.359 E2.38114
G1 X118.358 Y113.182 E2.43193
G1 X119.181 Y111.888 E2.48294
G1 X119.827 Y110.513 E2.53347
G1 X120.302 Y109.049 E2.58466
G1 X120.588 Y107.55 E2.63542
G1 X120.709 Y105.639 E2.6991
G1 X120.798 Y104.854 E2.72538
G1 X120.967 Y104.083 E2.75163
G1 X121.212 Y103.332 E2.77791
G1 X121.533 Y102.61 E2.80419
G1 X121.924 Y101.925 E2.83042
G1 X122.383 Y101.282 E2.8567
G1 X123.176 Y100.424 E2.89556
G1 X123.293 Y100.315 E2.90087
G1 X123.897 Y99.807 E2.92712
G1 X124.55 Y99.362 E2.95341
G1 X125.244 Y98.986 E2.97966
G1 X125.973 Y98.681 E3.00594
G1 X126.729 Y98.452 E3.03221
G1 X127.504 Y98.301 E3.05848
G1 X128.61 Y98.222 E3.09536
G1 X151.383 Y98.222 E3.85279
G1 X152.172 Y98.262 E3.87906
G1 X152.952 Y98.381 E3.90531
G1 X153.717 Y98.579 E3.93159
G1 X154.457 Y98.853 E3.95784
G1 X155.166 Y99.201 E3.9841
G1 X155.837 Y99.619 E4.0104
G1 X156.461 Y100.102 E4.03664
G1 X156.898 Y100.507 E4.05646
G1 X157.015 Y100.624 E4.06196
G1 X157.545 Y101.21 E4.08824
G1 X158.012 Y101.846 E4.11449
G1 X158.413 Y102.526 E4.14074
G1 X158.743 Y103.244 E4.16703
G1 X158.998 Y103.991 E4.19328
G1 X159.177 Y104.76 E4.21954
G1 X159.277 Y105.544 E4.24583
G1 X159.3 Y106.139 E4.26563
G1 X159.3 Y110.905 E4.42415
G1 X159.26 Y111.694 E4.45043
G1 X159.141 Y112.474 E4.47667
G1 X158.943 Y113.239 E4.50295
G1 X158.669 Y113.979 E4.5292
G1 X158.321 Y114.688 E4.55546
G1 X157.903 Y115.359 E4.58176
G1 X157.42 Y115.983 E4.608
G1 X157.015 Y116.42 E4.62782
G1 X156.898 Y116.537 E4.63332
G1 X156.312 Y117.067 E4.6596
G1 X155.676 Y117.534 E4.68585
G1 X154.996 Y117.935 E4.7121
G1 X154.278 Y118.265 E4.73839
G1 X153.531 Y118.52 E4.76464
G1 X152.762 Y118.699 E4.7909
G1 X151.978 Y118.799 E4.81719
G1 X151.383 Y118.822 E4.83699
G1 X144.023 Y118.822 E5.08179
G1 X143.81 Y119.478 E5.10473
G1 X143.45 Y120.388 E5.13728
G1 X141.845 Y123.799 E5.26266
G1 X141.372 Y124.659 E5.2953
G1 X139.349 Y127.845 E5.42083
G1 X138.771 Y128.639 E5.45349
G1 X136.375 Y131.532 E5.57843
G1 X135.707 Y132.243 E5.61088
G1 X132.957 Y134.825 E5.73634
G1 X132.203 Y135.449 E5.76889
G1 X129.15 Y137.667 E5.8944
G1 X128.322 Y138.193 E5.92703
G1 X125.027 Y140.004 E6.05208
G1 X124.138 Y140.421 E6.08474
G1 X120.633 Y141.807 E6.2101
G1 X119.703 Y142.109 E6.24263
G1 X116.047 Y143.047 E6.36816
G1 X115.086 Y143.231 E6.40071
G1 X111.356 Y143.702 E6.52575
G1 X110.377 Y143.763 E6.55838
G1 X106.606 Y143.762 E6.6838
G1 X105.627 Y143.7 E6.71643
G1 X101.897 Y143.227 E6.84148
G1 X100.937 Y143.044 E6.87399
G1 X97.282 Y142.105 E6.9995
G1 X96.351 Y141.802 E7.03206
G1 X92.846 Y140.414 E7.15745
G1 X91.958 Y139.996 E7.19009
G1 X88.665 Y138.184 E7.3151
G1 X87.838 Y137.659 E7.34768
G1 X84.786 Y135.44 E7.47319
G1 X84.033 Y134.816 E7.50572
G1 X81.283 Y132.233 E7.6312
G1 X80.614 Y131.521 E7.6637
G1 X78.227 Y128.637 E7.78821
G1 X77.65 Y127.844 E7.82083
G1 X75.621 Y124.647 E7.94677
G1 X75.148 Y123.785 E7.97947
G1 X74.225 Y121.822 E8.05162
G1 X70.501 Y121.822 E8.17548
G1 X70.242 Y121.818 E8.1841
G1 X69.731 Y121.801 E8.2011
G1 X69.005 Y121.743 E8.22532
G1 X68.015 Y121.617 E8.25852
G1 X67.054 Y121.432 E8.29107
G1 X66.076 Y121.18 E8.32466
G1 X65.144 Y120.877 E8.35725
G1 X64.207 Y120.505 E8.39078
G1 X63.321 Y120.087 E8.42337
G1 X62.448 Y119.606 E8.45652
G1 X61.618 Y119.077 E8.48926
G1 X60.803 Y118.483 E8.5228
G1 X60.058 Y117.866 E8.55497
G1 X59.321 Y117.174 E8.5886
G1 X58.647 Y116.456 E8.62135
G1 X58.015 Y115.691 E8.65435
G1 X57.442 Y114.903 E8.68676
G1 X56.9 Y114.049 E8.7204
G1 X56.425 Y113.182 E8.75328
G1 X55.998 Y112.272 E8.78672
G1 X55.637 Y111.358 E8.8194
G1 X55.328 Y110.402 E8.85282
G1 X55.087 Y109.459 E8.88519
G1 X54.901 Y108.48 E8.91833
G1 X54.779 Y107.511 E8.95082
G1 X54.716 Y106.504 E8.98438
G1 X54.717 Y105.524 E9.01697
G1 X54.781 Y104.513 E9.05066
G1 X54.905 Y103.534 E9.08349
G1 X55.093 Y102.556 E9.11661
G1 X55.336 Y101.615 E9.14893
G1 X55.646 Y100.662 E9.18227
G1 X56.006 Y99.752 E9.21481
G1 X56.435 Y98.841 E9.24831
G1 X56.91 Y97.979 E9.28104
G1 X57.453 Y97.125 E9.3147
G1 X58.029 Y96.333 E9.34727
G1 X58.663 Y95.568 E9.38032
G1 X59.342 Y94.847 E9.41326
G1 X60.079 Y94.158 E9.44682
G1 X60.819 Y93.547 E9.47873
G1 X61.636 Y92.953 E9.51233
G0 F8400 X61.871 Y93.277
G1 F2700 X62.661 Y92.776 E9.54344
G1 X63.535 Y92.296 E9.57661
G1 X64.379 Y91.899 E9.60763
G1 X65.316 Y91.529 E9.64114
G1 X66.194 Y91.244 E9.67184
G1 X67.172 Y90.993 E9.70542
G1 X68.092 Y90.818 E9.73657
G1 X69.082 Y90.694 E9.76976
G1 X70.002 Y90.637 E9.80041
G1 X70.998 Y90.637 E9.83354
G1 X71.918 Y90.694 E9.8642
G1 X72.908 Y90.818 E9.89738
G1 X73.834 Y90.995 E9.92874
G1 X74.824 Y91.25 E9.96274
G1 X75.709 Y91.538 E9.9937
G1 X76.646 Y91.91 E10.02723
G1 X77.486 Y92.307 E10.05813
G1 X78.359 Y92.788 E10.09128
G1 X79.151 Y93.292 E10.1225
G1 X79.966 Y93.887 E10.15607
G1 X80.664 Y94.466 E10.18623
G1 X81.401 Y95.157 E10.21983
G1 X82.044 Y95.841 E10.25106
G1 X82.677 Y96.607 E10.28411
G1 X83.224 Y97.361 E10.31509
G1 X83.765 Y98.215 E10.34871
G1 X83.988 Y98.622 E10.36415
G1 X88.39 Y98.622 E10.51056
G1 X89.158 Y98.662 E10.53614
G1 X89.918 Y98.781 E10.56172
G1 X90.661 Y98.979 E10.5873
G1 X91.38 Y99.253 E10.61289
G1 X92.066 Y99.6 E10.63846
G1 X92.713 Y100.016 E10.66404
G1 X93.434 Y100.608 E10.69507
G1 X93.551 Y100.717 E10.70039
G1 X94.086 Y101.269 E10.72596
G1 X94.56 Y101.875 E10.75155
G1 X94.97 Y102.526 E10.77713
G1 X95.309 Y103.216 E10.8027
G1 X95.575 Y103.938 E10.8283
G1 X95.764 Y104.684 E10.85389
G1 X95.892 Y105.664 E10.88676
G1 X96.015 Y107.603 E10.95139
G1 X96.31 Y109.153 E11.00386
G1 X96.798 Y110.655 E11.05639
G1 X97.467 Y112.08 E11.10875
G1 X98.319 Y113.42 E11.16156
G1 X99.323 Y114.634 E11.21396
G1 X100.483 Y115.721 E11.26684
G1 X101.763 Y116.651 E11.31946
G1 X103.149 Y117.412 E11.37205
G1 X104.612 Y117.991 E11.42438
G1 X106.141 Y118.384 E11.47689
G1 X107.711 Y118.582 E11.52952
G1 X109.289 Y118.582 E11.58201
G1 X110.859 Y118.384 E11.63464
G1 X112.386 Y117.992 E11.68707
G1 X113.875 Y117.401 E11.74036
G1 X115.231 Y116.655 E11.79183
G1 X116.532 Y115.708 E11.84535
G1 X117.678 Y114.632 E11.89764
G1 X118.681 Y113.42 E11.94996
G1 X119.533 Y112.08 E12.00277
G1 X120.202 Y110.655 E12.05513
G1 X120.69 Y109.153 E12.10766
G1 X120.985 Y107.603 E12.16014
G1 X121.108 Y105.664 E12.22476
G1 X121.196 Y104.9 E12.25034
G1 X121.363 Y104.149 E12.27593
G1 X121.608 Y103.42 E12.30151
G1 X121.926 Y102.72 E12.32708
G1 X122.316 Y102.057 E12.35266
G1 X122.772 Y101.437 E12.37826
G1 X123.449 Y100.717 E12.41113
G1 X123.566 Y100.608 E12.41645
G1 X124.155 Y100.113 E12.44204
G1 X124.792 Y99.683 E12.4676
G1 X125.471 Y99.321 E12.49319
G1 X126.184 Y99.031 E12.5188
G1 X126.922 Y98.817 E12.54435
G1 X127.679 Y98.681 E12.56993
G1 X128.61 Y98.622 E12.60096
G1 X151.383 Y98.622 E13.35839
G1 X152.151 Y98.662 E13.38397
G1 X152.911 Y98.781 E13.40956
G1 X153.654 Y98.979 E13.43513
G1 X154.373 Y99.253 E13.46072
G1 X155.059 Y99.6 E13.48629
G1 X155.706 Y100.016 E13.51188
G1 X156.306 Y100.497 E13.53745
G1 X156.733 Y100.906 E13.55712
G1 X157.247 Y101.478 E13.5827
G1 X157.7 Y102.1 E13.60829
G1 X158.086 Y102.765 E13.63387
G1 X158.401 Y103.467 E13.65946
G1 X158.641 Y104.198 E13.68505
G1 X158.804 Y104.949 E13.71061
G1 X158.888 Y105.714 E13.7362
G1 X158.9 Y106.139 E13.75034
G1 X158.9 Y110.905 E13.90886
G1 X158.86 Y111.673 E13.93444
G1 X158.741 Y112.433 E13.96003
G1 X158.543 Y113.176 E13.9856
G1 X158.269 Y113.895 E14.01119
G1 X157.922 Y114.581 E14.03676
G1 X157.506 Y115.228 E14.06235
G1 X157.025 Y115.828 E14.08792
G1 X156.616 Y116.255 E14.10759
G1 X156.044 Y116.769 E14.13317
G1 X155.422 Y117.222 E14.15876
G1 X154.757 Y117.608 E14.18433
G1 X154.055 Y117.923 E14.20992
G1 X153.324 Y118.163 E14.23551
G1 X152.573 Y118.326 E14.26107
G1 X151.808 Y118.41 E14.28667
G1 X151.383 Y118.422 E14.30081
G1 X143.733 Y118.422 E14.55525
G1 X143.43 Y119.354 E14.58785
G1 X143.088 Y120.218 E14.61875
G1 X141.483 Y123.629 E14.74414
G1 X141.034 Y124.445 E14.77511
G1 X139.011 Y127.631 E14.90064
G1 X138.463 Y128.384 E14.93161
G1 X136.067 Y131.277 E15.05655
G1 X135.433 Y131.952 E15.08735
G1 X132.683 Y134.534 E15.21281
G1 X131.967 Y135.126 E15.24371
G1 X128.914 Y137.344 E15.36923
G1 X128.129 Y137.842 E15.40015
G1 X124.834 Y139.653 E15.5252
G1 X123.991 Y140.05 E15.55619
G1 X120.486 Y141.436 E15.68155
G1 X119.604 Y141.722 E15.71239
G1 X115.948 Y142.66 E15.83793
G1 X115.036 Y142.834 E15.86881
G1 X111.306 Y143.305 E15.99385
G1 X110.377 Y143.363 E16.02481
G1 X106.606 Y143.362 E16.15024
G1 X105.677 Y143.303 E16.1812
G1 X101.947 Y142.83 E16.30625
G1 X101.037 Y142.656 E16.33707
G1 X97.382 Y141.717 E16.46258
G1 X96.498 Y141.43 E16.49349
G1 X92.993 Y140.042 E16.61888
G1 X92.151 Y139.645 E16.64984
G1 X88.858 Y137.833 E16.77485
G1 X88.073 Y137.335 E16.80577
G1 X85.021 Y135.116 E16.93128
G1 X84.307 Y134.525 E16.9621
G1 X81.557 Y131.942 E17.08759
G1 X80.922 Y131.266 E17.11844
G1 X78.535 Y128.382 E17.24295
G1 X77.988 Y127.629 E17.27391
G1 X75.959 Y124.432 E17.39985
G1 X75.51 Y123.614 E17.43088
G1 X74.48 Y121.422 E17.51144
G1 X70.501 Y121.422 E17.64378
G1 X70.255 Y121.418 E17.65196
G1 X69.744 Y121.401 E17.66897
G1 X69.056 Y121.346 E17.69192
G1 X68.066 Y121.22 E17.72512
G1 X67.154 Y121.045 E17.756
G1 X66.176 Y120.793 E17.7896
G1 X65.291 Y120.505 E17.82055
G1 X64.354 Y120.133 E17.85408
G1 X63.514 Y119.736 E17.88498
G1 X62.641 Y119.255 E17.91813
G1 X61.853 Y118.754 E17.94919
G1 X61.038 Y118.16 E17.98273
G1 X60.332 Y117.575 E18.01323
G1 X59.595 Y116.883 E18.04685
G1 X58.955 Y116.201 E18.07796
G1 X58.323 Y115.436 E18.11097
G1 X57.78 Y114.688 E18.14171
G1 X57.238 Y113.834 E18.17535
G1 X56.787 Y113.012 E18.20653
G1 X56.36 Y112.102 E18.23997
G1 X56.018 Y111.235 E18.27097
G1 X55.709 Y110.279 E18.30438
G1 X55.48 Y109.384 E18.33511
G1 X55.294 Y108.405 E18.36825
G1 X55.178 Y107.486 E18.39906
G1 X55.115 Y106.479 E18.43262
G1 X55.116 Y105.549 E18.46355
G1 X55.18 Y104.538 E18.49725
G1 X55.298 Y103.609 E18.52839
G1 X55.486 Y102.631 E18.56152
G1 X55.716 Y101.739 E18.59216
G1 X56.026 Y100.786 E18.62549
G1 X56.368 Y99.922 E18.65639
G1 X56.797 Y99.011 E18.68988
G1 X57.247 Y98.193 E18.72094
G1 X57.79 Y97.339 E18.7546
G1 X58.337 Y96.588 E18.7855
G1 X58.971 Y95.823 E18.81854
G1 X59.615 Y95.139 E18.84979
G1 X60.352 Y94.45 E18.88335
G1 X61.054 Y93.871 E18.91361
G1 X61.871 Y93.277 E18.94721
G0 F8400 X62.107 Y93.6
G1 F2700 X62.853 Y93.126 E18.97661
G1 X63.727 Y92.646 E19.00977
G1 X64.526 Y92.271 E19.03913
G1 X65.463 Y91.901 E19.07263
G1 X66.294 Y91.632 E19.10169
G1 X67.272 Y91.381 E19.13527
G1 X68.142 Y91.215 E19.16473
G1 X69.132 Y91.091 E19.19791
G1 X70.002 Y91.037 E19.2269
G1 X70.998 Y91.037 E19.26003
G1 X71.868 Y91.091 E19.28902
G1 X72.858 Y91.215 E19.32221
G1 X73.734 Y91.382 E19.35187
G1 X74.724 Y91.637 E19.38587
G1 X75.561 Y91.91 E19.41515
G1 X76.498 Y92.282 E19.44868
G1 X77.293 Y92.657 E19.47792
G1 X78.166 Y93.138 E19.51107
G1 X78.916 Y93.615 E19.54063
G1 X79.731 Y94.21 E19.5742
G1 X80.391 Y94.757 E19.60271
G1 X81.128 Y95.448 E19.63631
G1 X81.736 Y96.096 E19.66586
G1 X82.369 Y96.862 E19.69891
G1 X82.886 Y97.575 E19.72821
G1 X83.427 Y98.429 E19.76183
G1 X83.752 Y99.022 E19.78432
G1 X88.39 Y99.022 E19.93858
G1 X89.137 Y99.062 E19.96346
G1 X89.875 Y99.181 E19.98833
G1 X90.597 Y99.379 E20.01323
G1 X91.293 Y99.652 E20.03809
G1 X91.956 Y99.999 E20.06298
G1 X92.579 Y100.414 E20.08788
G1 X93.162 Y100.9 E20.11312
G1 X93.279 Y101.009 E20.11844
G1 X93.798 Y101.548 E20.14333
G1 X94.257 Y102.138 E20.16819
G1 X94.65 Y102.775 E20.19309
G1 X94.973 Y103.45 E20.21797
G1 X95.222 Y104.155 E20.24284
G1 X95.395 Y104.883 E20.26773
G1 X95.493 Y105.689 E20.29473
G1 X95.617 Y107.656 E20.36029
G1 X95.921 Y109.248 E20.41419
G1 X96.427 Y110.806 E20.46868
G1 X97.116 Y112.274 E20.52261
G1 X97.994 Y113.654 E20.57702
G1 X99.027 Y114.903 E20.63092
G1 X100.239 Y116.039 E20.68617
G1 X101.541 Y116.985 E20.7397
G1 X102.981 Y117.775 E20.79433
G1 X104.484 Y118.371 E20.84811
G1 X106.072 Y118.778 E20.90263
G1 X107.685 Y118.982 E20.95671
G1 X109.315 Y118.982 E21.01092
G1 X110.928 Y118.778 E21.065
G1 X112.514 Y118.372 E21.11945
G1 X114.04 Y117.766 E21.17406
G1 X115.453 Y116.989 E21.22769
G1 X116.784 Y116.019 E21.28247
G1 X117.97 Y114.906 E21.33657
G1 X119.006 Y113.654 E21.39062
G1 X119.884 Y112.274 E21.44502
G1 X120.573 Y110.806 E21.49896
G1 X121.079 Y109.248 E21.55344
G1 X121.383 Y107.656 E21.60735
G1 X121.507 Y105.689 E21.6729
G1 X121.594 Y104.946 E21.69778
G1 X121.76 Y104.217 E21.72265
G1 X122.003 Y103.509 E21.74754
G1 X122.319 Y102.832 E21.77239
G1 X122.707 Y102.192 E21.79729
G1 X123.16 Y101.597 E21.82216
G1 X123.721 Y101.009 E21.84919
G1 X123.838 Y100.9 E21.85451
G1 X124.412 Y100.42 E21.87939
G1 X125.034 Y100.004 E21.90428
G1 X125.697 Y99.657 E21.92917
G1 X126.392 Y99.383 E21.95402
G1 X127.114 Y99.184 E21.97893
G1 X127.852 Y99.063 E22.0038
G1 X128.61 Y99.022 E22.02905
G1 X151.383 Y99.022 E22.78648
G1 X152.13 Y99.062 E22.81136
G1 X152.868 Y99.181 E22.83623
G1 X153.59 Y99.379 E22.86113
G1 X154.286 Y99.652 E22.88599
G1 X154.949 Y99.999 E22.91088
G1 X155.572 Y100.414 E22.93578
G1 X156.333 Y101.072 E22.96924
G1 X156.45 Y101.189 E22.97474
