;FLAVOR:Marlin
;TIME:7416
;Filament used: 7.09112m
;Layer height: 0.2
;MINX:54.701
;MINY:82.958
;MINZ:0.2
;MAXX:159.3
;MAXY:151.042
;MAXZ:16
;Generated with Cura_SteamEngine 4.8.0
M140 S60
M105
M190 S60
M104 S200
M105
M109 S200
M82 ;absolute extrusion mode
;Layer height: 0.2
;Walls: 1
;Fill: 99
;Top\Bottom Thickness: 0.6
G90 ;absolute positioning
M82 ;set extruder to absolute mode
G4 S1 ;1 millisecond pause to buffer the bep bep 
M300 S2 ;FAB bep bep (start the print, go check the oozing and skirt lines adesion) 
G4 S1 ;1 second pause to reach the printer (run fast)
G92 E0 ;zero the extruded length 
G1 F200 E35    ;slowly extrude 35mm of filament to clean the nozzle and build up extrusion pressure 
G92 E0 ;zero the extruded length again 
;print
G92 E0
G92 E0
G1 F1380 E-2.5
;LAYER_COUNT:80
;LAYER:0
M107
G0 F8400 X97.58 Y85.797 Z0.2
;TYPE:SKIRT
G1 F1380 E0
G1 F2700 X97.985 Y85.36 E0.01982
G1 X98.102 Y85.243 E0.02532
G1 X98.688 Y84.713 E0.0516
G1 X99.324 Y84.246 E0.07784
G1 X100.004 Y83.845 E0.1041
G1 X100.722 Y83.515 E0.13038
G1 X101.469 Y83.26 E0.15664
G1 X102.238 Y83.081 E0.1829
G1 X103.022 Y82.981 E0.20918
G1 X103.617 Y82.958 E0.22899
G1 X113.383 Y82.958 E0.55381
G1 X114.172 Y82.998 E0.58008
G1 X114.952 Y83.117 E0.60633
G1 X115.717 Y83.315 E0.63261
G1 X116.457 Y83.589 E0.65885
G1 X117.166 Y83.937 E0.68512
G1 X117.837 Y84.355 E0.71142
G1 X118.461 Y84.838 E0.73766
G1 X118.898 Y85.243 E0.75748
G1 X119.015 Y85.36 E0.76298
G1 X119.545 Y85.946 E0.78926
G1 X120.012 Y86.582 E0.8155
G1 X120.413 Y87.262 E0.84176
G1 X120.743 Y87.98 E0.86804
G1 X120.998 Y88.727 E0.8943
G1 X121.177 Y89.496 E0.92056
G1 X121.277 Y90.28 E0.94684
G1 X121.3 Y90.875 E0.96665
G1 X121.3 Y99.735 E1.26133
G1 X124.156 Y100.867 E1.36351
G1 X125.041 Y101.283 E1.39604
G1 X128.334 Y103.094 E1.52104
G1 X129.162 Y103.62 E1.55366
G1 X132.214 Y105.839 E1.67917
G1 X132.967 Y106.463 E1.71169
G1 X135.717 Y109.046 E1.83718
G1 X136.386 Y109.758 E1.86967
G1 X138.773 Y112.642 E1.99419
G1 X139.349 Y113.435 E2.02679
G1 X141.377 Y116.63 E2.15265
G1 X141.851 Y117.492 E2.18537
G1 X143.454 Y120.902 E2.3107
G1 X143.814 Y121.812 E2.34325
G1 X144.024 Y122.458 E2.36584
G1 X151.383 Y122.458 E2.6106
G1 X152.172 Y122.498 E2.63688
G1 X152.952 Y122.617 E2.66312
G1 X153.717 Y122.815 E2.6894
G1 X154.457 Y123.089 E2.71565
G1 X155.166 Y123.437 E2.74192
G1 X155.837 Y123.855 E2.76821
G1 X156.461 Y124.338 E2.79445
G1 X156.898 Y124.743 E2.81427
G1 X157.015 Y124.86 E2.81977
G1 X157.545 Y125.446 E2.84605
G1 X158.012 Y126.082 E2.8723
G1 X158.413 Y126.762 E2.89855
G1 X158.743 Y127.48 E2.92484
G1 X158.998 Y128.227 E2.95109
G1 X159.177 Y128.996 E2.97735
G1 X159.277 Y129.78 E3.00364
G1 X159.3 Y130.375 E3.02344
G1 X159.3 Y134.641 E3.16533
G1 X159.26 Y135.43 E3.19161
G1 X159.141 Y136.21 E3.21785
G1 X158.943 Y136.975 E3.24413
G1 X158.669 Y137.715 E3.27038
G1 X158.321 Y138.424 E3.29665
G1 X157.903 Y139.095 E3.32294
G1 X157.42 Y139.719 E3.34918
G1 X157.015 Y140.156 E3.369
G1 X156.898 Y140.273 E3.3745
G1 X156.312 Y140.803 E3.40078
G1 X155.676 Y141.27 E3.42703
G1 X154.996 Y141.671 E3.45328
G1 X154.278 Y142.001 E3.47957
G1 X153.531 Y142.256 E3.50582
G1 X152.762 Y142.435 E3.53208
G1 X151.978 Y142.535 E3.55837
G1 X151.383 Y142.558 E3.57817
G1 X128.579 Y142.558 E4.33664
G1 X127.79 Y142.518 E4.36291
G1 X127.01 Y142.399 E4.38916
G1 X126.245 Y142.201 E4.41544
G1 X125.505 Y141.927 E4.44168
G1 X124.796 Y141.579 E4.46795
G1 X124.125 Y141.161 E4.49425
G1 X123.262 Y140.465 E4.53112
G1 X123.145 Y140.356 E4.53644
G1 X122.595 Y139.789 E4.56271
G1 X122.106 Y139.17 E4.58895
G1 X121.681 Y138.504 E4.61523
G1 X121.326 Y137.798 E4.64151
G1 X121.044 Y137.061 E4.66776
G1 X120.838 Y136.298 E4.69404
G1 X120.678 Y135.144 E4.73279
G1 X120.588 Y133.729 E4.77995
G1 X120.302 Y132.228 E4.83077
G1 X119.828 Y130.769 E4.88179
G1 X119.178 Y129.386 E4.93262
G1 X118.361 Y128.1 E4.9833
G1 X117.386 Y126.922 E5.03415
G1 X116.257 Y125.865 E5.08559
G1 X115.026 Y124.969 E5.13623
G1 X113.679 Y124.229 E5.18735
G1 X112.266 Y123.671 E5.23788
G1 X110.772 Y123.287 E5.28919
G1 X109.271 Y123.097 E5.33951
G1 X107.729 Y123.097 E5.39079
G1 X106.228 Y123.287 E5.44112
G1 X104.736 Y123.67 E5.49235
G1 X103.297 Y124.241 E5.54384
G1 X101.98 Y124.965 E5.59383
G1 X100.723 Y125.881 E5.64556
G1 X99.617 Y126.919 E5.69601
G1 X98.641 Y128.098 E5.74691
G1 X97.821 Y129.389 E5.79778
G1 X97.171 Y130.772 E5.84861
G1 X96.698 Y132.228 E5.89953
G1 X96.412 Y133.729 E5.95035
G1 X96.322 Y135.144 E5.99751
G1 X96.232 Y135.928 E6.02375
G1 X96.064 Y136.7 E6.05003
G1 X95.818 Y137.45 E6.07628
G1 X95.497 Y138.172 E6.10256
G1 X95.105 Y138.857 E6.12881
G1 X94.646 Y139.5 E6.15509
G1 X93.855 Y140.356 E6.19386
G1 X93.738 Y140.465 E6.19917
G1 X93.134 Y140.973 E6.22542
G1 X92.481 Y141.418 E6.25171
G1 X91.787 Y141.794 E6.27796
G1 X91.058 Y142.099 E6.30424
G1 X90.302 Y142.328 E6.33051
G1 X89.527 Y142.479 E6.35678
G1 X88.421 Y142.558 E6.39366
G1 X82.763 Y142.558 E6.58184
G1 X82.76 Y142.619 E6.58387
G1 X82.644 Y143.4 E6.61013
G1 X82.45 Y144.165 E6.63638
G1 X82.179 Y144.907 E6.66266
G1 X81.834 Y145.618 E6.68894
G1 X81.42 Y146.29 E6.71519
G1 X80.94 Y146.916 E6.74143
G1 X80.398 Y147.491 E6.76771
G1 X79.557 Y148.192 E6.80413
G1 X79.353 Y148.339 E6.81249
G1 X78.548 Y148.848 E6.84417
G1 X77.663 Y149.334 E6.87775
G1 X76.719 Y149.773 E6.91238
G1 X75.751 Y150.147 E6.94689
G1 X74.903 Y150.42 E6.97652
G1 X73.953 Y150.667 E7.00917
G1 X72.939 Y150.86 E7.0435
G1 X71.927 Y150.984 E7.07741
G1 X70.978 Y151.042 E7.10903
G1 X70.044 Y151.042 E7.1401
G1 X69.09 Y150.983 E7.17189
G1 X68.051 Y150.855 E7.20671
G1 X67.041 Y150.663 E7.2409
G1 X65.984 Y150.388 E7.27723
G1 X65.041 Y150.077 E7.31025
G1 X64.187 Y149.734 E7.34086
G1 X63.378 Y149.354 E7.37059
G1 X62.542 Y148.901 E7.40222
G1 X61.78 Y148.429 E7.43203
G1 X61.486 Y148.222 E7.44399
G1 X60.814 Y147.73 E7.47169
G1 X60.101 Y147.139 E7.50249
G1 X59.339 Y146.428 E7.53716
G1 X58.648 Y145.694 E7.57068
G1 X58.057 Y144.979 E7.60154
G1 X57.504 Y144.221 E7.63275
G1 X56.919 Y143.309 E7.66878
G1 X56.428 Y142.422 E7.7025
G1 X56.004 Y141.522 E7.73559
G1 X55.632 Y140.577 E7.76937
G1 X55.33 Y139.634 E7.8023
G1 X55.099 Y138.731 E7.83331
G1 X54.905 Y137.724 E7.86741
G1 X54.78 Y136.745 E7.90024
G1 X54.717 Y135.758 E7.93313
G1 X54.701 Y135.229 E7.95074
G1 X54.717 Y134.733 E7.96724
G1 X54.78 Y133.744 E8.0002
G1 X54.903 Y132.776 E8.03266
G1 X55.092 Y131.787 E8.06615
G1 X55.331 Y130.853 E8.09821
G1 X55.626 Y129.94 E8.13013
G1 X55.994 Y129.008 E8.16345
G1 X56.442 Y128.059 E8.19836
G1 X56.919 Y127.196 E8.23115
G1 X57.459 Y126.349 E8.26456
G1 X58.035 Y125.559 E8.29708
G1 X58.662 Y124.804 E8.32972
G1 X59.332 Y124.093 E8.36222
G1 X60.101 Y123.373 E8.39725
G1 X60.841 Y122.761 E8.42919
G1 X61.602 Y122.207 E8.4605
G1 X62.432 Y121.68 E8.4932
G1 X63.324 Y121.189 E8.52707
G1 X64.233 Y120.762 E8.56047
G1 X65.18 Y120.39 E8.59431
G1 X66.121 Y120.088 E8.62718
G1 X67.118 Y119.836 E8.66138
G1 X68.055 Y119.659 E8.6931
G1 X69.04 Y119.535 E8.72612
G1 X70.003 Y119.474 E8.75821
G1 X71.387 Y119.472 E8.80425
G1 X72.175 Y119.511 E8.83049
G1 X72.956 Y119.629 E8.85676
G1 X73.721 Y119.826 E8.88303
G1 X74.002 Y119.93 E8.893
G1 X75.155 Y117.48 E8.98306
G1 X75.628 Y116.62 E9.0157
G1 X77.651 Y113.434 E9.14123
G1 X78.229 Y112.64 E9.17389
G1 X80.625 Y109.747 E9.29883
G1 X81.293 Y109.036 E9.33128
G1 X84.043 Y106.454 E9.45674
G1 X84.799 Y105.829 E9.48936
G1 X87.852 Y103.612 E9.61486
G1 X88.678 Y103.087 E9.64741
G1 X91.973 Y101.276 E9.77246
G1 X92.86 Y100.859 E9.80506
G1 X95.7 Y99.735 E9.90665
G1 X95.7 Y90.875 E10.20133
G1 X95.74 Y90.086 E10.22761
G1 X95.859 Y89.306 E10.25385
G1 X96.057 Y88.541 E10.28014
G1 X96.331 Y87.801 E10.30638
G1 X96.679 Y87.092 E10.33265
G1 X97.097 Y86.421 E10.35894
G1 X97.58 Y85.797 E10.38519
G0 F8400 X97.975 Y85.952
G1 F2700 X98.384 Y85.525 E10.40485
G1 X98.956 Y85.011 E10.43043
G1 X99.578 Y84.558 E10.45603
G1 X100.243 Y84.172 E10.4816
G1 X100.945 Y83.857 E10.50719
G1 X101.676 Y83.617 E10.53278
G1 X102.427 Y83.454 E10.55834
G1 X103.192 Y83.37 E10.58394
G1 X103.617 Y83.358 E10.59808
G1 X113.383 Y83.358 E10.9229
G1 X114.151 Y83.398 E10.94848
G1 X114.911 Y83.517 E10.97406
G1 X115.654 Y83.715 E10.99964
G1 X116.373 Y83.989 E11.02523
G1 X117.059 Y84.336 E11.0508
G1 X117.706 Y84.752 E11.07638
G1 X118.306 Y85.233 E11.10196
G1 X118.733 Y85.642 E11.12162
G1 X119.247 Y86.214 E11.1472
G1 X119.7 Y86.836 E11.17279
G1 X120.086 Y87.501 E11.19837
G1 X120.401 Y88.203 E11.22396
G1 X120.641 Y88.934 E11.24955
G1 X120.804 Y89.685 E11.27511
G1 X120.888 Y90.45 E11.30071
G1 X120.9 Y90.875 E11.31485
G1 X120.9 Y100.007 E11.61858
G1 X124.008 Y101.239 E11.72978
G1 X124.848 Y101.634 E11.76065
G1 X128.141 Y103.445 E11.88565
G1 X128.927 Y103.944 E11.91661
G1 X131.979 Y106.163 E12.04212
G1 X132.693 Y106.754 E12.07294
G1 X135.443 Y109.337 E12.19843
G1 X136.078 Y110.013 E12.22928
G1 X138.465 Y112.897 E12.35379
G1 X139.012 Y113.649 E12.38472
G1 X141.04 Y116.844 E12.51059
G1 X141.489 Y117.662 E12.54162
G1 X143.092 Y121.072 E12.66695
G1 X143.434 Y121.935 E12.69782
G1 X143.734 Y122.858 E12.7301
G1 X151.383 Y122.858 E12.98451
G1 X152.151 Y122.898 E13.01009
G1 X152.911 Y123.017 E13.03567
G1 X153.654 Y123.215 E13.06125
G1 X154.373 Y123.489 E13.08684
G1 X155.059 Y123.836 E13.11241
G1 X155.706 Y124.252 E13.13799
G1 X156.306 Y124.733 E13.16357
G1 X156.733 Y125.142 E13.18324
G1 X157.247 Y125.714 E13.20881
G1 X157.7 Y126.336 E13.23441
G1 X158.086 Y127.001 E13.25998
G1 X158.401 Y127.703 E13.28557
G1 X158.641 Y128.434 E13.31116
G1 X158.804 Y129.185 E13.33672
G1 X158.888 Y129.95 E13.36232
G1 X158.9 Y130.375 E13.37646
G1 X158.9 Y134.641 E13.51835
G1 X158.86 Y135.409 E13.54393
G1 X158.741 Y136.169 E13.56951
G1 X158.543 Y136.912 E13.59509
G1 X158.269 Y137.631 E13.62068
G1 X157.922 Y138.317 E13.64625
G1 X157.506 Y138.964 E13.67183
G1 X157.025 Y139.564 E13.69741
G1 X156.616 Y139.991 E13.71707
G1 X156.044 Y140.505 E13.74265
G1 X155.422 Y140.958 E13.76824
G1 X154.757 Y141.344 E13.79382
G1 X154.055 Y141.659 E13.81941
G1 X153.324 Y141.899 E13.845
G1 X152.573 Y142.062 E13.87056
G1 X151.808 Y142.146 E13.89616
G1 X151.383 Y142.158 E13.9103
G1 X128.579 Y142.158 E14.66876
G1 X127.811 Y142.118 E14.69434
G1 X127.051 Y141.999 E14.71993
G1 X126.308 Y141.801 E14.7455
G1 X125.589 Y141.527 E14.77109
G1 X124.903 Y141.18 E14.79666
G1 X124.256 Y140.764 E14.82224
G1 X123.535 Y140.172 E14.85327
G1 X123.418 Y140.063 E14.85859
G1 X122.883 Y139.511 E14.88416
G1 X122.409 Y138.905 E14.90975
G1 X121.999 Y138.254 E14.93534
G1 X121.66 Y137.564 E14.96091
G1 X121.394 Y136.842 E14.9865
G1 X121.205 Y136.096 E15.01209
G1 X121.077 Y135.118 E15.0449
G1 X120.985 Y133.677 E15.09293
G1 X120.691 Y132.131 E15.14527
G1 X120.199 Y130.617 E15.19822
G1 X119.531 Y129.197 E15.25041
G1 X118.684 Y127.864 E15.30294
G1 X117.675 Y126.644 E15.3556
G1 X116.515 Y125.558 E15.40845
G1 X115.237 Y124.628 E15.46102
G1 X113.854 Y123.868 E15.5135
G1 X112.385 Y123.287 E15.56605
G1 X110.859 Y122.895 E15.61845
G1 X109.289 Y122.697 E15.67108
G1 X107.711 Y122.697 E15.72356
G1 X106.141 Y122.895 E15.7762
G1 X104.617 Y123.287 E15.82853
G1 X103.122 Y123.88 E15.88203
G1 X101.767 Y124.625 E15.93346
G1 X100.467 Y125.572 E15.98695
G1 X99.328 Y126.641 E16.03891
G1 X98.316 Y127.864 E16.0917
G1 X97.47 Y129.195 E16.14416
G1 X96.799 Y130.623 E16.19664
G1 X96.309 Y132.131 E16.24937
G1 X96.015 Y133.677 E16.30172
G1 X95.923 Y135.118 E16.34974
G1 X95.834 Y135.882 E16.37532
G1 X95.667 Y136.633 E16.40091
G1 X95.423 Y137.362 E16.42648
G1 X95.104 Y138.062 E16.45207
G1 X94.714 Y138.725 E16.47765
G1 X94.258 Y139.344 E16.50322
G1 X93.582 Y140.063 E16.53605
G1 X93.465 Y140.172 E16.54136
G1 X92.876 Y140.667 E16.56695
G1 X92.239 Y141.097 E16.59252
G1 X91.56 Y141.459 E16.61811
G1 X90.847 Y141.749 E16.64371
G1 X90.109 Y141.963 E16.66927
G1 X89.352 Y142.099 E16.69485
G1 X88.421 Y142.158 E16.72588
G1 X82.387 Y142.158 E16.92657
G1 X82.335 Y142.818 E16.94859
G1 X82.196 Y143.575 E16.97419
G1 X81.98 Y144.313 E16.99976
G1 X81.688 Y145.025 E17.02536
G1 X81.324 Y145.702 E17.05092
G1 X80.891 Y146.338 E17.07651
G1 X80.395 Y146.926 E17.1021
G1 X79.841 Y147.459 E17.12767
G1 X79.323 Y147.868 E17.14962
G1 X79.119 Y148.015 E17.15798
G1 X78.355 Y148.497 E17.18803
G1 X77.47 Y148.983 E17.22161
G1 X76.575 Y149.4 E17.25445
G1 X75.607 Y149.774 E17.28896
G1 X74.802 Y150.033 E17.31709
G1 X73.852 Y150.28 E17.34974
G1 X72.89 Y150.463 E17.38231
G1 X71.878 Y150.587 E17.41622
G1 X70.978 Y150.642 E17.44621
G1 X70.044 Y150.642 E17.47727
G1 X69.139 Y150.586 E17.50743
G1 X68.1 Y150.458 E17.54225
G1 X67.142 Y150.276 E17.57468
G1 X66.085 Y150.001 E17.61101
G1 X65.19 Y149.706 E17.64235
G1 X64.336 Y149.363 E17.67296
G1 X63.569 Y149.002 E17.70116
G1 X62.733 Y148.549 E17.73278
G1 X62.009 Y148.102 E17.76108
G1 X61.723 Y147.899 E17.77275
G1 X61.051 Y147.407 E17.80045
G1 X60.374 Y146.847 E17.82967
G1 X59.612 Y146.136 E17.86434
G1 X58.956 Y145.44 E17.89615
G1 X58.365 Y144.725 E17.927
G1 X57.84 Y144.005 E17.95664
G1 X57.255 Y143.093 E17.99267
G1 X56.79 Y142.252 E18.02464
G1 X56.366 Y141.352 E18.05773
G1 X56.013 Y140.455 E18.08979
G1 X55.711 Y139.512 E18.12272
G1 X55.492 Y138.655 E18.15214
G1 X55.298 Y137.648 E18.18625
G1 X55.179 Y136.719 E18.2174
G1 X55.116 Y135.732 E18.2503
G1 X55.101 Y135.229 E18.26703
G1 X55.116 Y134.759 E18.28267
G1 X55.179 Y133.77 E18.31563
G1 X55.296 Y132.851 E18.34645
G1 X55.485 Y131.862 E18.37994
G1 X55.711 Y130.976 E18.41035
G1 X56.006 Y130.063 E18.44226
G1 X56.356 Y129.179 E18.47388
G1 X56.804 Y128.23 E18.50879
G1 X57.256 Y127.411 E18.5399
G1 X57.796 Y126.564 E18.57331
G1 X58.343 Y125.814 E18.60419
G1 X58.97 Y125.059 E18.63683
G1 X59.605 Y124.385 E18.66763
G1 X60.374 Y123.665 E18.70266
G1 X61.077 Y123.084 E18.733
G1 X61.838 Y122.53 E18.76431
G1 X62.625 Y122.03 E18.79532
G1 X63.517 Y121.539 E18.82918
G1 X64.379 Y121.134 E18.86086
G1 X65.326 Y120.762 E18.8947
G1 X66.219 Y120.476 E18.92589
G1 X67.216 Y120.224 E18.96009
G1 X68.105 Y120.056 E18.99018
G1 X69.09 Y119.932 E19.0232
G1 X70.003 Y119.874 E19.05363
G1 X71.387 Y119.872 E19.09966
G1 X72.155 Y119.911 E19.12524
G1 X72.915 Y120.029 E19.15082
G1 X73.659 Y120.226 E19.17642
G1 X74.207 Y120.434 E19.19591
G1 X75.517 Y117.65 E19.29825
G1 X75.966 Y116.834 E19.32923
G1 X77.989 Y113.648 E19.45475
G1 X78.537 Y112.895 E19.48572
G1 X80.933 Y110.002 E19.61066
G1 X81.567 Y109.327 E19.64146
G1 X84.317 Y106.745 E19.76693
G1 X85.034 Y106.152 E19.79787
G1 X88.087 Y103.935 E19.92336
G1 X88.871 Y103.438 E19.95424
G1 X92.166 Y101.627 E20.07929
G1 X93.007 Y101.231 E20.11021
G1 X96.1 Y100.007 E20.22085
G1 X96.1 Y90.875 E20.52458
G1 X96.14 Y90.107 E20.55016
G1 X96.259 Y89.347 E20.57574
G1 X96.457 Y88.604 E20.60132
G1 X96.731 Y87.885 E20.62691
G1 X97.078 Y87.199 E20.65248
G1 X97.494 Y86.552 E20.67806
G1 X97.975 Y85.952 E20.70364
G0 F8400 X97.892 Y86.686
G1 F2700 X98.55 Y85.925 E20.7371
G1 X98.667 Y85.808 E20.7426
G1 X99.224 Y85.308 E20.7675
G1 X99.83 Y84.871 E20.79235
G1 X100.48 Y84.5 E20.81724
G1 X101.166 Y84.201 E20.84213
G1 X101.88 Y83.977 E20.86702
G1 X102.613 Y83.83 E20.89188
G1 X103.617 Y83.758 E20.92536
G1 X113.383 Y83.758 E21.25018
G1 X114.13 Y83.798 E21.27506
G1 X114.868 Y83.917 E21.29992
G1 X115.59 Y84.115 E21.32482
G1 X116.286 Y84.388 E21.34969
G1 X116.949 Y84.735 E21.37458
G1 X117.572 Y85.15 E21.39948
G1 X118.333 Y85.808 E21.43294
G1 X118.45 Y85.925 E21.43844
G1 X118.95 Y86.482 E21.46334
G1 X119.387 Y87.088 E21.48819
G1 X119.758 Y87.738 E21.51308
G1 X120.057 Y88.424 E21.53797
G1 X120.281 Y89.138 E21.56286
G1 X120.428 Y89.871 E21.58772
G1 X120.5 Y90.875 E21.6212
G1 X120.5 Y100.278 E21.93395
G1 X123.861 Y101.61 E22.05419
G1 X124.655 Y101.984 E22.08338
G1 X127.948 Y103.795 E22.20838
